assets/svg/currencies/fiat/EUR.svg

<svg width="300" height="300" viewBox="0 0 300 300" fill="none" xmlns="http://www.w3.org/2000/svg">
<path d="M150 300C232.843 300 300 232.843 300 150C300 67.1573 232.843 0 150 0C67.1573 0 0 67.1573 0 150C0 232.843 67.1573 300 150 300Z" fill="#10BA97"/>
<path d="M96.5609 141.8H74.9609L86.0009 119.72H98.4809C101.841 101.32 109.041 87.3199 120.081 77.7199C131.121 67.9599 144.961 63.08 161.601 63.08C184.321 63.08 200.641 72.1999 210.561 90.4399L189.441 102.44C182.561 91.24 173.281 85.6399 161.601 85.6399C141.121 85.6399 128.641 97 124.161 119.72H175.281L164.241 141.8H122.001V156.2H175.281L164.241 178.28H124.161C128.641 201 141.121 212.36 161.601 212.36C173.281 212.36 182.561 206.76 189.441 195.56L210.561 207.56C200.641 225.8 184.321 234.92 161.601 234.92C144.961 234.92 131.121 230.12 120.081 220.52C109.041 210.76 101.841 196.68 98.4809 178.28H74.9609L86.0009 156.2H96.5609V141.8Z" fill="white"/>
</svg>

<svg viewBox="0 0 300 300" fill="none" xmlns="http://www.w3.org/2000/svg">
    <path d="M150 300c82.843 0 150-67.157 150-150S232.843 0 150 0 0 67.157 0 150s67.157 150 150 150z" fill="#10BA97"/>
    <path d="M96.56 141.8h-21.6L86 119.72h12.48c3.361-18.4 10.561-32.4 21.601-42 11.04-9.76 24.88-14.64 41.52-14.64 22.72 0 39.04 9.12 48.96 27.36l-21.12 12c-6.88-11.2-16.16-16.8-27.84-16.8-20.48 0-32.96 11.36-37.44 34.08h51.12l-11.04 22.08h-42.24v14.4h53.28l-11.04 22.08h-40.08c4.48 22.72 16.96 34.08 37.44 34.08 11.68 0 20.96-5.6 27.84-16.8l21.12 12c-9.92 18.24-26.24 27.36-48.96 27.36-16.64 0-30.48-4.8-41.52-14.4-11.04-9.76-18.24-23.84-21.6-42.24H74.96L86 156.2h10.56v-14.4z" fill="#fff"/>
</svg>
